X:3035
T:Concertina Reel, The
R:Reel
C:Trad.
O:Ireland
Z:Paul Hardy's Session Tunebook 2022 (see www.paulhardy.net). Creative Commons cc by-nc-sa licenced.
M:4/4
L:1/8
Q:1/4=140
K:D
"D"A2 FA BAFA|A2 FA BAFA|"A"B2 cA B2 cA|B2 cA BAFG|
"D"A2 FA BAFA|A2 FA BAFE|FABc "G"dedB|"A7"AFEG "D"FDFG:|
|:"D"Addd Addd|Addd BAFA|"A"B2 cA B2 cA|B2 cA BAFG|
"D"Addd Addd|Addd BAFA|"G"GABc dedB|"A7"AFEG "D"FD D2:|

